images_sukapura_svg/cmd/32/graphicfilterremovenoise.svg

<svg viewBox="0 0 32 32" xmlns="http://www.w3.org/2000/svg" xmlns:xlink="http://www.w3.org/1999/xlink"><linearGradient id="a" gradientUnits="userSpaceOnUse" x1="-18.694915" x2="-7.689563" y1="17.213546" y2="17.213546"><stop offset="0" stop-color="#0040dd"/><stop offset="1" stop-color="#0a84ff"/></linearGradient><path d="m8 16 3-1v2l-3 1z" fill="#808080"/><path d="m6 26 3-1v2l-3 1z" fill="#808080"/><path d="m9.5 31.5 12.002676-28.006793" fill="none" stroke="url(#a)" stroke-linecap="round" stroke-linejoin="round"/><g fill="#69696e"><path d="m2 10 3-1v2l-3 1z"/><path d="m6 12 3-1v2l-3 1z"/><path d="m2.5 15.5 2.5-.5v2l-2.5.5z"/><path d="m6 20 3-1v2l-3 1z"/><path d="m2 24 3-1v2l-3 1z"/><path d="m10 10 3-1v2l-3 1z"/><path d="m27 9h2v2h-2z"/><path d="m27 19h2v2h-2z"/><path d="m21 19h2v2h-2z"/><path d="m25 27h2v2h-2z"/><path d="m23 13h2v2h-2z"/><path d="m19 27h2v2h-2z"/><path d="m15 23h2v2h-2z"/><path d="m23 5h2v2h-2z"/><path d="m12 14 3-1v2l-3 1z"/><path d="m14 6 3-1v2l-3 1z"/><path d="m8 6 3-1v2l-3 1z"/><path d="m3 6 3-1v2l-3 1z"/><path d="m10 22 3-1v2l-3 1z"/><path d="m11 18 3-1v2l-3 1z"/></g></svg>

<?xml version="1.0" encoding="UTF-8" standalone="no"?>
<svg
   xmlns:dc="http://purl.org/dc/elements/1.1/"
   xmlns:cc="http://creativecommons.org/ns#"
   xmlns:rdf="http://www.w3.org/1999/02/22-rdf-syntax-ns#"
   xmlns:svg="http://www.w3.org/2000/svg"
   xmlns="http://www.w3.org/2000/svg"
   xmlns:xlink="http://www.w3.org/1999/xlink"
   xmlns:sodipodi="http://sodipodi.sourceforge.net/DTD/sodipodi-0.dtd"
   xmlns:inkscape="http://www.inkscape.org/namespaces/inkscape"
   viewBox="0 0 32 32"
   version="1.1"
   id="svg50"
   sodipodi:docname="graphicfilterremovenoise.svg"
   inkscape:version="0.92.3 (unknown)"
   inkscape:export-filename="/home/rizmut/Dokumen/Rizmut/Github/libreoffice-style-sukapura/images_sukapura/cmd/32/graphicfilterremovenoise.png"
   inkscape:export-xdpi="96"
   inkscape:export-ydpi="96">
  <metadata
     id="metadata56">
    <rdf:RDF>
      <cc:Work
         rdf:about="">
        <dc:format>image/svg+xml</dc:format>
        <dc:type
           rdf:resource="http://purl.org/dc/dcmitype/StillImage" />
        <dc:title></dc:title>
      </cc:Work>
    </rdf:RDF>
  </metadata>
  <defs
     id="defs54">
    <linearGradient
       gradientTransform="translate(-29.694915,1.220339)"
       id="a-6"
       gradientUnits="userSpaceOnUse"
       x1="14"
       x2="13.79661"
       y1="22"
       y2="2.1355929">
      <stop
         offset="0"
         stop-color="#0040dd"
         id="stop2" />
      <stop
         offset="1"
         stop-color="#0a84ff"
         id="stop4" />
    </linearGradient>
    <linearGradient
       inkscape:collect="always"
       xlink:href="#a-6"
       id="linearGradient890"
       x1="11"
       y1="15.993207"
       x2="22.005352"
       y2="15.993207"
       gradientUnits="userSpaceOnUse" />
  </defs>
  <sodipodi:namedview
     pagecolor="#ffffff"
     bordercolor="#666666"
     borderopacity="1"
     objecttolerance="10"
     gridtolerance="10"
     guidetolerance="10"
     inkscape:pageopacity="0"
     inkscape:pageshadow="2"
     inkscape:window-width="1366"
     inkscape:window-height="706"
     id="namedview52"
     showgrid="true"
     inkscape:zoom="7.375"
     inkscape:cx="10.602856"
     inkscape:cy="16.773458"
     inkscape:window-x="0"
     inkscape:window-y="0"
     inkscape:window-maximized="1"
     inkscape:current-layer="svg50">
    <inkscape:grid
       type="xygrid"
       id="grid866"
       spacingx="0.5"
       spacingy="0.5"
       empspacing="2" />
  </sodipodi:namedview>
  <path
     d="m 8,16 3,-1 v 2 l -3,1 z"
     id="path2"
     inkscape:connector-curvature="0"
     style="fill:#808080"
     sodipodi:nodetypes="ccccc" />
  <path
     d="m 6,26 3,-1 v 2 l -3,1 z"
     id="path4"
     inkscape:connector-curvature="0"
     style="fill:#808080"
     sodipodi:nodetypes="ccccc" />
  <path
     d="M 9.5,31.5 21.502676,3.493207"
     id="path6"
     style="fill:none;stroke:url(#linearGradient890);stroke-linecap:round;stroke-linejoin:round"
     inkscape:connector-curvature="0"
     sodipodi:nodetypes="cc" />
  <g
     fill="#808080"
     id="g48"
     style="stroke:none;fill:#69696e;fill-opacity:1">
    <path
       d="M 2,10 5,9 v 2 l -3,1 z"
       id="path8"
       style="fill:#69696e;fill-opacity:1;stroke:none"
       inkscape:connector-curvature="0"
       sodipodi:nodetypes="ccccc" />
    <path
       d="m 6,12 3,-1 v 2 l -3,1 z"
       id="path10"
       style="fill:#69696e;fill-opacity:1;stroke:none"
       inkscape:connector-curvature="0"
       sodipodi:nodetypes="ccccc" />
    <path
       d="M 2.5,15.5 5,15 v 2 l -2.5,0.5 z"
       id="path12"
       style="fill:#69696e;fill-opacity:1;stroke:none"
       inkscape:connector-curvature="0"
       sodipodi:nodetypes="ccccc" />
    <path
       d="m 6,20 3,-1 v 2 l -3,1 z"
       id="path14"
       style="fill:#69696e;fill-opacity:1;stroke:none"
       inkscape:connector-curvature="0"
       sodipodi:nodetypes="ccccc" />
    <path
       d="m 2,24 3,-1 v 2 l -3,1 z"
       id="path16"
       style="fill:#69696e;fill-opacity:1;stroke:none"
       inkscape:connector-curvature="0"
       sodipodi:nodetypes="ccccc" />
    <path
       d="m 10,10 3,-1 v 2 l -3,1 z"
       id="path18"
       style="fill:#69696e;fill-opacity:1;stroke:none"
       inkscape:connector-curvature="0"
       sodipodi:nodetypes="ccccc" />
    <path
       d="m27 9h2v2h-2z"
       id="path20"
       style="stroke:none;fill:#69696e;fill-opacity:1" />
    <path
       d="m27 19h2v2h-2z"
       id="path22"
       style="stroke:none;fill:#69696e;fill-opacity:1" />
    <path
       d="m21 19h2v2h-2z"
       id="path24"
       style="stroke:none;fill:#69696e;fill-opacity:1" />
    <path
       d="m25 27h2v2h-2z"
       id="path26"
       style="stroke:none;fill:#69696e;fill-opacity:1" />
    <path
       d="m23 13h2v2h-2z"
       id="path28"
       style="stroke:none;fill:#69696e;fill-opacity:1" />
    <path
       d="m19 27h2v2h-2z"
       id="path30"
       style="stroke:none;fill:#69696e;fill-opacity:1" />
    <path
       d="m15 23h2v2h-2z"
       id="path32"
       style="stroke:none;fill:#69696e;fill-opacity:1" />
    <path
       d="m23 5h2v2h-2z"
       id="path34"
       style="stroke:none;fill:#69696e;fill-opacity:1" />
    <path
       d="m 12,14 3,-1 v 2 l -3,1 z"
       id="path36"
       style="fill:#69696e;fill-opacity:1;stroke:none"
       inkscape:connector-curvature="0"
       sodipodi:nodetypes="ccccc" />
    <path
       d="M 14,6 17,5 V 7 L 14,8 Z"
       id="path38"
       style="fill:#69696e;fill-opacity:1;stroke:none"
       inkscape:connector-curvature="0"
       sodipodi:nodetypes="ccccc" />
    <path
       d="M 8,6 11,5 V 7 L 8,8 Z"
       id="path40"
       style="fill:#69696e;fill-opacity:1;stroke:none"
       inkscape:connector-curvature="0"
       sodipodi:nodetypes="ccccc" />
    <path
       d="M 3,6 6,5 V 7 L 3,8 Z"
       id="path42"
       style="fill:#69696e;fill-opacity:1;stroke:none"
       inkscape:connector-curvature="0"
       sodipodi:nodetypes="ccccc" />
    <path
       d="m 10,22 3,-1 v 2 l -3,1 z"
       id="path44"
       style="fill:#69696e;fill-opacity:1;stroke:none"
       inkscape:connector-curvature="0"
       sodipodi:nodetypes="ccccc" />
    <path
       d="m 11,18 3,-1 v 2 l -3,1 z"
       id="path46"
       style="fill:#69696e;fill-opacity:1;stroke:none"
       inkscape:connector-curvature="0"
       sodipodi:nodetypes="ccccc" />
  </g>
</svg>
